Adwaita++/apps/scalable/preferences-desktop-display.svg

<svg enable-background="new" height="128" viewBox="0 0 128 128" width="128" xmlns="http://www.w3.org/2000/svg" xmlns:xlink="http://www.w3.org/1999/xlink">
  <radialGradient id="radialGradient1030-8" cx="64" cy="194.19" gradientTransform="matrix(-4.7272726 .00000129 -.0000003 -1.4318182 490.54548 36.71204)" gradientUnits="userSpaceOnUse" r="44">
    <stop offset="0" stop-color="#fff"/>
    <stop offset="1" stop-color="#fff" stop-opacity=".094118"/>
  </radialGradient>
  <linearGradient id="linearGradient1444-2-3-3" gradientUnits="userSpaceOnUse" x1="135.99999" x2="247.99999" y1="246.000027" y2="246.000027">
    <stop offset="0" stop-color="#d5d3cf"/>
    <stop offset=".036" stop-color="#e4e1de"/>
    <stop offset=".071" stop-color="#d5d3cf"/>
    <stop offset=".929" stop-color="#d5d3cf"/>
    <stop offset=".964" stop-color="#e4e1de"/>
    <stop offset="1" stop-color="#d5d3cf"/>
  </linearGradient>
  <g transform="translate(-128 -140)">
    <rect fill="#f6f5f4" height="88" rx="8" width="112" x="136" y="168"/>
    <rect fill="#1a5cd6" height="78" rx="4" width="104" x="140" y="172"/>
    <path d="m135.99999 246v4c0 4.432 3.568 8 8 8h96c4.432 0 8-3.568 8-8v-4c0 4.432-3.568 8-8 8h-96c-4.432 0-8-3.568-8-8z" fill="url(#linearGradient1444-2-3-3)"/>
    <path d="m144-246h96v70h-96z" fill="url(#radialGradient1030-8)" opacity=".05" transform="scale(1 -1)"/>
    <g enable-background="new" transform="matrix(.84014002 0 0 .84014002 152.3874 -6.170689)">
      <path d="m104 223.15234-104.3791408 60.26236-2.7458592.5853v1h26.125 81zm-14 24.24805v23.59961h-40.875z" fill="#b38108"/>
      <path d="m104 222.15234-107.125 61.84766h26.125 81zm-14 24.24805v23.59961h-40.875z" fill="#f6d32d"/>
      <path d="m90 72.400391-40.875 23.599609v2l40.875-23.599609zm-89.66015625 37.599609-3.46484375 2h26.125 81v-2h-81z" fill="#e5a50a" transform="translate(0 172)"/>
      <g fill="none" stroke="#b38108">
        <g stroke-width="1.095445" transform="matrix(1 0 0 .83333333 0 47.333333)">
          <path d="m101.5 278v6"/>
          <path d="m86.5 278v6"/>
          <path d="m71.5 278v6"/>
          <path d="m56.5 278v6"/>
          <path d="m41.5 278v6"/>
          <path d="m26.5 278v6"/>
          <path d="m11.5 278v6"/>
        </g>
        <g>
          <path d="m98.5 281v3"/>
          <path d="m95.5 281v3"/>
          <path d="m92.5 281v3"/>
          <path d="m89.5 281v3"/>
          <path d="m83.5 281v3"/>
          <path d="m80.5 281v3"/>
          <path d="m77.5 281v3"/>
          <path d="m74.5 281v3"/>
          <path d="m68.5 281v3"/>
          <path d="m65.5 281v3"/>
          <path d="m62.5 281v3"/>
          <path d="m59.5 281v3"/>
          <path d="m53.5 281v3"/>
          <path d="m50.5 281v3"/>
          <path d="m47.5 281v3"/>
          <path d="m44.5 281v3"/>
          <path d="m38.5 281v3"/>
          <path d="m35.5 281v3"/>
          <path d="m32.5 281v3"/>
          <path d="m29.5 281v3"/>
          <path d="m23.5 281v3"/>
          <path d="m20.5 281v3"/>
          <path d="m17.5 281v3"/>
          <path d="m14.5 281v3"/>
          <path d="m8.5 281v3"/>
          <path d="m5.5 281v3"/>
        </g>
      </g>
    </g>
  </g>
</svg>

<svg xmlns="http://www.w3.org/2000/svg" xmlns:xlink="http://www.w3.org/1999/xlink" width="128" height="128" version="1.0" viewBox="0 0 128 128" style="enable-background:new">
 <title id="title4162">
  Adwaita Icon Template
 </title>
 <defs>
  <linearGradient id="linearGradient1099" x1="32" x2="96" y1="236" y2="236" gradientTransform="translate(604.81684,170.58641)" gradientUnits="userSpaceOnUse" xlink:href="#linearGradient1036"/>
  <linearGradient id="linearGradient1036">
   <stop id="stop1032" offset="0" style="stop-color:#d5d3cf"/>
   <stop id="stop1034" offset="1" style="stop-color:#f6f5f4"/>
  </linearGradient>
  <radialGradient id="radialGradient1103" cx="-244" cy="-76" r="32" fx="-244" fy="-76" gradientTransform="matrix(0.88333331,0,0,0.88333331,-460.35018,463.11973)" gradientUnits="userSpaceOnUse" xlink:href="#linearGradient1069"/>
  <linearGradient id="linearGradient1069">
   <stop id="stop1065" offset="0" style="stop-color:#d5d3cf"/>
   <stop id="stop1067-1" offset="1" style="stop-color:#949390"/>
  </linearGradient>
  <linearGradient id="linearGradient1027" x1="64" x2="64" y1="262.5" y2="232" gradientTransform="translate(-470.5864,432.81685)" gradientUnits="userSpaceOnUse" xlink:href="#linearGradient1025"/>
  <linearGradient id="linearGradient1025">
   <stop id="stop1021" offset="0" style="stop-color:#9a9996"/>
   <stop id="stop1023" offset="1" style="stop-color:#77767b"/>
  </linearGradient>
  <linearGradient id="linearGradient1076">
   <stop style="stop-color:#d5d3cf" id="stop1064" offset="0"/>
   <stop id="stop1066" offset=".036" style="stop-color:#e4e1de"/>
   <stop style="stop-color:#d5d3cf" id="stop1068" offset=".071"/>
   <stop id="stop1070" offset=".929" style="stop-color:#d5d3cf"/>
   <stop style="stop-color:#e4e1de" id="stop1072" offset=".964"/>
   <stop style="stop-color:#d5d3cf" id="stop1074" offset="1"/>
  </linearGradient>
  <linearGradient id="linearGradient1020">
   <stop style="stop-color:#ffffff" id="stop1016" offset="0"/>
   <stop style="stop-color:#ffffff;stop-opacity:0.09411765" id="stop1018" offset="1"/>
  </linearGradient>
  <radialGradient id="radialGradient1030-8" cx="64" cy="194.19" r="44" fx="64" fy="194.19" gradientTransform="matrix(-4.7272726,1.2901346e-6,-3.0301491e-7,-1.4318182,490.54548,36.71204)" gradientUnits="userSpaceOnUse" xlink:href="#linearGradient1020"/>
  <linearGradient id="linearGradient1444-2-3-3" x1="120" x2="568" y1="619.964" y2="619.964" gradientTransform="matrix(0.25,0,0,0.25,105.99999,91.009027)" gradientUnits="userSpaceOnUse" xlink:href="#linearGradient1076"/>
 </defs>
 <g id="layer1" transform="translate(0,-172)">
  <g id="layer2" style="display:none">
   <text style="font-size:5.33333349px;line-height:125%;font-family:Cantarell" id="context" x="-.05" y="128.65" xml:space="preserve">
    <tspan id="tspan2716" x="-.05" y="128.65" style="font-size:5.33333349px">apps</tspan>
   </text>
   <text id="text3021" x="-.25" y="137.23" xml:space="preserve" style="font-weight:bold;font-size:5.33333349px;line-height:125%;font-family:Cantarell">
    <tspan id="tspan3023" x="-.25" y="137.23" style="font-size:5.33333349px">org.gnome.Usage</tspan>
   </text>
   <rect style="fill:#f0f0f0" width="128" height="128" x="0" y="172"/>
   <rect width="16" height="16" x="160" y="172" style="fill:#f0f0f0"/>
   <text style="font-weight:bold;font-size:4px;line-height:125%;font-family:Cantarell" id="text863" x="0" y="164" xml:space="preserve">
    <tspan style="font-size:4px" id="tspan861" x="0" y="164">Hicolor</tspan>
   </text>
   <text id="text867" x="160" y="164" xml:space="preserve" style="font-weight:bold;font-size:4px;line-height:125%;font-family:Cantarell">
    <tspan id="tspan865" x="160" y="164" style="font-size:4px">Symbolic</tspan>
   </text>
  </g>
  <g id="layer3" style="display:none">
   <circle cx="64" cy="236" r="59.504" style="opacity:0.1;fill:none;stroke:#000000;stroke-width:0.99000001;stroke-dasharray:0.99000001, 0.99000001"/>
   <rect width="87.01" height="111.01" x="20.5" y="180.5" rx="8.701" ry="7.929" style="opacity:0.1;fill:none;stroke:#000000;stroke-width:0.99000001;stroke-dasharray:0.99000001, 0.99000001"/>
   <rect width="103.01" height="103.01" x="12.49" y="184.5" rx="7.924" ry="7.924" style="opacity:0.1;fill:none;stroke:#000000;stroke-width:0.99000001;stroke-dasharray:0.99000001, 0.99000001"/>
   <rect width="111.01" height="87.01" x="8.49" y="200.5" rx="7.929" ry="8.701" style="opacity:0.1;fill:none;stroke:#000000;stroke-width:0.99000001;stroke-dasharray:0.99000001, 0.99000001"/>
   <path d="M 2.6203015e-5,288.99999 H 128.00003" style="fill:none;stroke:#62a0ea;stroke-width:2"/>
  </g>
  <g id="layer9">
   <g transform="translate(-128,32)">
    <rect style="fill:#f6f5f4" width="112" height="88" x="136" y="168" rx="8" ry="8"/>
    <rect style="fill:#1a5cd6" width="104" height="78" x="140" y="172" rx="4" ry="4"/>
    <path style="fill:url(#linearGradient1444-2-3-3)" d="m 135.99999,246 v 4 c 0,4.432 3.568,8 8,8 h 96 c 4.432,0 8,-3.568 8,-8 v -4 c 0,4.432 -3.568,8 -8,8 h -96 c -4.432,0 -8,-3.568 -8,-8 z"/>
    <rect width="96" height="70" x="144" y="-246" transform="scale(1,-1)" style="opacity:0.05;fill:url(#radialGradient1030-8)"/>
    <g style="enable-background:new" transform="matrix(0.84014002,0,0,0.84014002,152.3874,-6.1706894)">
     <path style="fill:#b38108" d="M 104,223.15234 -0.3791408,283.4147 -3.125,284 v 1 H 23 104 Z M 90,247.40039 V 271 H 49.125 Z"/>
     <path d="M 104,222.15234 -3.125,284 H 23 104 Z M 90,246.40039 V 270 H 49.125 Z" style="fill:#f6d32d"/>
     <path d="M 90,72.400391 49.125,96 v 2 L 90,74.400391 Z M 0.33984375,110 -3.125,112 H 23 104 v -2 H 23 Z" transform="translate(0,172)" style="fill:#e5a50a"/>
     <g style="stroke:#b38108">
      <g transform="matrix(1,0,0,0.83333333,0,47.333333)" style="stroke:#b38108;stroke-width:1.09544516">
       <path d="m 101.5,278 v 6" style="fill:none;stroke:#b38108;stroke-width:1.09544516px"/>
       <path style="fill:none;stroke:#b38108;stroke-width:1.09544516px" d="m 86.5,278 v 6"/>
       <path style="fill:none;stroke:#b38108;stroke-width:1.09544516px" d="m 71.5,278 v 6"/>
       <path d="m 56.5,278 v 6" style="fill:none;stroke:#b38108;stroke-width:1.09544516px"/>
       <path d="m 41.5,278 v 6" style="fill:none;stroke:#b38108;stroke-width:1.09544516px"/>
       <path style="fill:none;stroke:#b38108;stroke-width:1.09544516px" d="m 26.5,278 v 6"/>
       <path d="m 11.5,278 v 6" style="fill:none;stroke:#b38108;stroke-width:1.09544516px"/>
      </g>
      <g style="stroke:#b38108">
       <path style="fill:none;stroke:#b38108;stroke-width:1px" d="m 98.5,281 v 3"/>
       <path d="m 95.5,281 v 3" style="fill:none;stroke:#b38108;stroke-width:1px"/>
       <path d="m 92.5,281 v 3" style="fill:none;stroke:#b38108;stroke-width:1px"/>
       <path style="fill:none;stroke:#b38108;stroke-width:1px" d="m 89.5,281 v 3"/>
       <path d="m 83.5,281 v 3" style="fill:none;stroke:#b38108;stroke-width:1px"/>
       <path style="fill:none;stroke:#b38108;stroke-width:1px" d="m 80.5,281 v 3"/>
       <path style="fill:none;stroke:#b38108;stroke-width:1px" d="m 77.5,281 v 3"/>
       <path d="m 74.5,281 v 3" style="fill:none;stroke:#b38108;stroke-width:1px"/>
       <path d="m 68.5,281 v 3" style="fill:none;stroke:#b38108;stroke-width:1px"/>
       <path style="fill:none;stroke:#b38108;stroke-width:1px" d="m 65.5,281 v 3"/>
       <path style="fill:none;stroke:#b38108;stroke-width:1px" d="m 62.5,281 v 3"/>
       <path d="m 59.5,281 v 3" style="fill:none;stroke:#b38108;stroke-width:1px"/>
       <path style="fill:none;stroke:#b38108;stroke-width:1px" d="m 53.5,281 v 3"/>
       <path d="m 50.5,281 v 3" style="fill:none;stroke:#b38108;stroke-width:1px"/>
       <path d="m 47.5,281 v 3" style="fill:none;stroke:#b38108;stroke-width:1px"/>
       <path style="fill:none;stroke:#b38108;stroke-width:1px" d="m 44.5,281 v 3"/>
       <path style="fill:none;stroke:#b38108;stroke-width:1px" d="m 38.5,281 v 3"/>
       <path d="m 35.5,281 v 3" style="fill:none;stroke:#b38108;stroke-width:1px"/>
       <path d="m 32.5,281 v 3" style="fill:none;stroke:#b38108;stroke-width:1px"/>
       <path style="fill:none;stroke:#b38108;stroke-width:1px" d="m 29.5,281 v 3"/>
       <path d="m 23.5,281 v 3" style="fill:none;stroke:#b38108;stroke-width:1px"/>
       <path style="fill:none;stroke:#b38108;stroke-width:1px" d="m 20.5,281 v 3"/>
       <path style="fill:none;stroke:#b38108;stroke-width:1px" d="m 17.5,281 v 3"/>
       <path d="m 14.5,281 v 3" style="fill:none;stroke:#b38108;stroke-width:1px"/>
       <path style="fill:none;stroke:#b38108;stroke-width:1px" d="m 8.5,281 v 3"/>
       <path d="m 5.5,281 v 3" style="fill:none;stroke:#b38108;stroke-width:1px"/>
      </g>
     </g>
    </g>
   </g>
  </g>
 </g>
</svg>
